dist/img/icons/arrow-up.svg

<svg width="20" height="20" viewBox="0 0 20 20" xmlns="http://www.w3.org/2000/svg">
  <path d="M3.01208 15.69H2.15485C0.966644 15.69 0 16.6568 0 17.845V19.4141C0 19.7377 0.262299 20 0.585938 20H3.11295C3.04779 19.8166 3.01208 19.6194 3.01208 19.4141V15.69Z" fill="#fff"/>
  <path d="M7.19604 12.552H6.33896C5.15076 12.552 4.18396 13.5188 4.18396 14.707V19.4141C4.18396 19.7377 4.44626 20 4.7699 20H7.29691C7.2319 19.8166 7.19604 19.6194 7.19604 19.4141V12.552Z" fill="#fff"/>
  <path d="M19.8849 5.88562L15.7008 0.237122C15.5902 0.0880432 15.4156 0 15.2299 0C15.0442 0 14.8695 0.0880432 14.7591 0.237122L10.5751 5.88562C10.4434 6.06339 10.4231 6.30035 10.5226 6.49796C10.6223 6.69556 10.8246 6.82037 11.046 6.82037H12.552V19.4141C12.552 19.7377 12.8143 20 13.138 20H17.3219C17.6456 20 17.9079 19.7377 17.9079 19.4141V6.82037H19.4141C19.6353 6.82037 19.8378 6.69556 19.9373 6.49796C20.0369 6.30035 20.0166 6.06339 19.8849 5.88562Z" fill="#fff"/>
  <path d="M11.3802 9.41406H10.5229C9.33472 9.41406 8.36792 10.3807 8.36792 11.5689V19.4141C8.36792 19.7377 8.63037 20 8.95386 20H11.4809C11.4159 19.8166 11.3802 19.6194 11.3802 19.4141V9.41406Z" fill="#fff"/>
</svg>

<svg width="20" height="20" viewBox="0 0 20 20" xmlns="http://www.w3.org/2000/svg"><path d="M3.012 15.69h-.857A2.157 2.157 0 000 17.845v1.57c0 .323.262.585.586.585h2.527c-.065-.183-.1-.38-.1-.586V15.69zm4.184-3.138h-.857a2.158 2.158 0 00-2.155 2.155v4.707c0 .324.262.586.586.586h2.527a1.75 1.75 0 01-.101-.586v-6.862zm12.689-6.666L15.7.237a.586.586 0 00-.942 0l-4.184 5.649a.586.586 0 00.471.934h1.506v12.594c0 .324.262.586.586.586h4.184a.586.586 0 00.586-.586V6.82h1.506a.586.586 0 00.47-.934z" fill="#fff"/><path d="M11.38 9.414h-.857a2.157 2.157 0 00-2.155 2.155v7.845c0 .324.262.586.586.586h2.527a1.75 1.75 0 01-.1-.586v-10z" fill="#fff"/></svg>
